X: 7
T: The Handsome Young Maidens
R: jig
M: 6/8
L: 1/8
K: Amaj
|: g |aed cdB | Ace a3 | bee dee | Bee bag |
aed cdB | Ace aga | bee dee | BAG A2 :|
|: B |c2 A EAc | d2d fed | c2e aec | B2B fed |
c2A EAc | d2d fed [1 ece aec | dBG A2 :|
[2 ede fef | gfg a2 |]


Tune 145	Setting 12841

